app/assets/images/twemoji/thinking.svg

<svg width="24" height="24" viewBox="0 0 24 24" fill="none" xmlns="http://www.w3.org/2000/svg">
<path d="M12 20.8989C17.216 20.8989 21.4444 16.6705 21.4444 11.4544C21.4444 6.23842 17.216 2.01 12 2.01C6.78398 2.01 2.55556 6.23842 2.55556 11.4544C2.55556 16.6705 6.78398 20.8989 12 20.8989Z" fill="#FFCB4C"/>
<path d="M10.0689 13.6867C9.98832 13.6222 9.92555 13.5344 9.89555 13.4289C9.8211 13.1733 9.96777 12.9189 10.2233 12.8617C12.7389 12.2944 14.4328 13.6189 14.5044 13.6756C14.7178 13.8456 14.7594 14.145 14.6005 14.345C14.4417 14.5439 14.1405 14.5678 13.9278 14.3989C13.8667 14.3522 12.5261 13.3306 10.4933 13.7889C10.3411 13.8228 10.1855 13.78 10.0689 13.6867V13.6867Z" fill="#65471B"/>
<path d="M9.28833 9.68333C9.94033 9.68333 10.4689 9.02271 10.4689 8.20778C10.4689 7.39285 9.94033 6.73222 9.28833 6.73222C8.63633 6.73222 8.10777 7.39285 8.10777 8.20778C8.10777 9.02271 8.63633 9.68333 9.28833 9.68333Z" fill="#65471B"/>
<path d="M15.5417 10.2733C16.1937 10.2733 16.7222 9.6127 16.7222 8.79778C16.7222 7.98285 16.1937 7.32222 15.5417 7.32222C14.8897 7.32222 14.3611 7.98285 14.3611 8.79778C14.3611 9.6127 14.8897 10.2733 15.5417 10.2733Z" fill="#65471B"/>
<path d="M11.5978 21.5272C11.5978 21.5272 12.3006 21.2989 12.3917 20.7761C12.4878 20.2361 12.045 20.1278 12.045 20.1278C12.045 20.1278 12.6233 20.0122 12.6961 19.3633C12.7644 18.7517 12.2178 18.6061 12.2178 18.6061C12.2178 18.6061 12.7567 18.3839 12.7822 17.7511C12.8033 17.2183 12.2294 16.9578 12.2294 16.9578C12.2294 16.9578 15.0283 16.2794 15.3161 16.2128C15.6028 16.1461 16.0494 15.8711 15.91 15.2717C15.7717 14.6717 15.2411 14.6506 14.9672 14.7144C14.6928 14.7783 11.2206 15.5844 10.0228 15.8633L9.22333 16.0489C8.92333 16.1194 8.78722 15.9878 8.99889 15.7644C9.28111 15.4667 9.46166 15.1372 9.52444 14.5906C9.59055 14.0156 9.39555 13.3056 9.28389 13.03C9.07611 12.5183 8.72555 12.1139 8.32055 11.975C7.68889 11.7583 7.24 12.1533 7.46389 12.8422C7.79944 13.8722 7.57944 14.7172 7.00111 15.2272C5.64055 16.4256 5.00778 17.28 5.42889 19.1011C5.88889 21.0872 7.86055 22.3656 9.84666 21.9056L11.5978 21.5272Z" fill="#F19020"/>
<path d="M7.16444 5.52833C7.07333 5.47944 6.99611 5.40389 6.94722 5.30667C6.82722 5.06889 6.925 4.79167 7.16555 4.68889C9.53555 3.67167 11.4428 4.665 11.5228 4.70778C11.7633 4.83611 11.8606 5.12278 11.74 5.34889C11.62 5.57389 11.3289 5.65222 11.0883 5.52555C11.02 5.49055 9.515 4.73 7.60055 5.55167C7.45777 5.61222 7.29666 5.59889 7.16444 5.52833V5.52833ZM13.9061 7.61167C13.8194 7.55722 13.7472 7.47667 13.705 7.37611C13.6011 7.13055 13.7178 6.86111 13.965 6.77389C16.3989 5.92055 18.2344 7.04055 18.3111 7.08889C18.5417 7.23333 18.6194 7.52611 18.4844 7.74333C18.35 7.96 18.0533 8.01833 17.8228 7.87555C17.7561 7.83555 16.3078 6.975 14.3411 7.665C14.1933 7.71555 14.0339 7.69055 13.9061 7.61167V7.61167Z" fill="#65471B"/>
</svg>

<svg width="24" height="24" viewBox="0 0 24 24" fill="none" xmlns="http://www.w3.org/2000/svg">
    <path d="M12 20.899a9.444 9.444 0 0 0 9.444-9.445 9.444 9.444 0 0 0-18.888 0A9.444 9.444 0 0 0 12 20.9z" fill="#FFCB4C"/>
    <path d="M10.069 13.687a.508.508 0 0 1-.173-.258.444.444 0 0 1 .327-.567c2.516-.568 4.21.757 4.281.814.214.17.255.469.097.669-.16.199-.46.223-.673.054-.061-.047-1.402-1.068-3.435-.61a.506.506 0 0 1-.424-.102zM9.288 9.683c.652 0 1.18-.66 1.18-1.475 0-.815-.528-1.476-1.18-1.476-.652 0-1.18.66-1.18 1.476 0 .815.528 1.475 1.18 1.475zM15.542 10.273c.652 0 1.18-.66 1.18-1.475 0-.815-.528-1.476-1.18-1.476-.652 0-1.18.66-1.18 1.476 0 .815.528 1.475 1.18 1.475z" fill="#65471B"/>
    <path d="M11.598 21.527s.703-.228.794-.75c.096-.54-.347-.65-.347-.65s.578-.115.651-.764c.068-.611-.478-.757-.478-.757s.539-.222.564-.855c.021-.533-.553-.793-.553-.793s2.8-.679 3.087-.745c.287-.067.733-.342.594-.941-.138-.6-.669-.621-.943-.558-.274.064-3.746.87-4.944 1.15l-.8.185c-.3.07-.436-.061-.224-.285.282-.297.463-.627.525-1.173.067-.575-.128-1.285-.24-1.561-.208-.512-.558-.916-.963-1.055-.632-.217-1.081.178-.857.867.335 1.03.115 1.875-.463 2.385-1.36 1.199-1.993 2.053-1.572 3.874.46 1.986 2.432 3.265 4.418 2.805l1.75-.379z" fill="#F19020"/>
    <path d="M7.164 5.528a.514.514 0 0 1-.217-.221.444.444 0 0 1 .219-.618c2.37-1.017 4.277-.024 4.357.019.24.128.338.415.217.64-.12.226-.411.304-.652.178-.068-.035-1.573-.796-3.487.026a.508.508 0 0 1-.437-.024zm6.742 2.084a.513.513 0 0 1-.201-.236.445.445 0 0 1 .26-.602c2.434-.853 4.27.267 4.346.315.23.144.308.437.173.654-.134.217-.43.275-.661.133-.067-.04-1.515-.901-3.482-.211a.514.514 0 0 1-.435-.053z" fill="#65471B"/>
</svg>
